modules/stroke-7/icons/battery.svg

<?xml version="1.0" encoding="utf-8"?>
<!-- Generated by IcoMoon.io -->
<!DOCTYPE svg PUBLIC "-//W3C//DTD SVG 1.1//EN" "http://www.w3.org/Graphics/SVG/1.1/DTD/svg11.dtd">
<svg version="1.1" xmlns="http://www.w3.org/2000/svg" xmlns:xlink="http://www.w3.org/1999/xlink" width="32" height="32" viewBox="0 0 32 32">
<g id="icomoon-ignore">
</g>
<path d="M0.020 10.649v10.702c0 0.873 0.708 1.58 1.58 1.58h13.348v-13.861h-13.348c-0.872 0-1.58 0.707-1.58 1.58zM13.882 21.864h-12.282c-0.283 0-0.513-0.231-0.513-0.514v-10.702c0-0.283 0.23-0.513 0.513-0.513h12.282v11.729z" fill="#000000"></path>
<path d="M31.98 16c0-1.757-1.417-3.183-3.171-3.197v-2.154c0-0.873-0.707-1.58-1.58-1.58h-11.215v1.066h11.215c0.283 0 0.513 0.23 0.513 0.513v10.702c0 0.283-0.23 0.514-0.513 0.514h-11.215v1.066h11.215c0.873 0 1.58-0.707 1.58-1.58v-2.153c1.753-0.015 3.171-1.439 3.171-3.197zM28.809 18.13v-4.26c1.163 0.016 2.104 0.963 2.104 2.13s-0.942 2.114-2.104 2.13z" fill="#000000"></path>
</svg>

<svg xmlns="http://www.w3.org/2000/svg" width="32" height="32"><path d="M.02 10.649v10.702c0 .873.708 1.58 1.58 1.58h13.348V9.07H1.6a1.58 1.58 0 0 0-1.58 1.58zm13.862 11.215H1.6a.514.514 0 0 1-.513-.514V10.648c0-.283.23-.513.513-.513h12.282v11.729zM31.98 16a3.197 3.197 0 0 0-3.171-3.197v-2.154a1.58 1.58 0 0 0-1.58-1.58H16.014v1.066h11.215c.283 0 .513.23.513.513V21.35c0 .283-.23.514-.513.514H16.014v1.066h11.215a1.58 1.58 0 0 0 1.58-1.58v-2.153A3.198 3.198 0 0 0 31.98 16zm-3.171 2.13v-4.26c1.163.016 2.104.963 2.104 2.13s-.942 2.114-2.104 2.13z"/></svg>
